!!!OTL: Prentice Boy
!!!ONM: 45.
**kern
*clefG2
*k[b-e-]
*B-:
*M2/4
*MM84
{8g
=1
8.f
16e-
8.B-
16B-
=2
(8.e-
16f)
8.g
16g
=3
8.f
16e-
8.B-
16B-
=4
4.B-}
{8B-
=5
8.e-
16e-
8.e-
16g
=6
16b-
8.b-
8r
8cc
=7
8.b-
16cc
8.g
16f
=8
4.g}
{8B-
=9
8.e-
16e-
8.e-
16g
=10
4b-
8b-
8cc
=11
8.b-
16cc
8.g
16f
=12
4g}
{8g
8g
=13
8.f
16e-
8.B-
16B-
=14
(8.e-
16f)
8.g
16g
=15
8.f
16e-
8.B-
16B-
=16
2B-}
==
*-
!!!CNT: Folksongs of Maritime Canada
!!!MRD: 1928///-1932///
!!!OCL: Helen Creighton
!!!YOR: Songs and Ballads from Nova Scotia
!!!PPR: J.M. Dent & Sons, Limited
!!!PPP: Toronto, Canada
!!!PDT: 1932///
!!!reprint: Dover Publications, 1992: ISBN 0-486-21703-5
!!!ENC1: Craig Stuart Sapp (music and bibliographic data)                       
!!!ENC2: Marcus Pearce (phrase markings and key designations)                   
!!!ENC3: Darrell Conklin (phrase markings and key designations)   
!!!END: 2002/04/10/
!!!EEV: 2004/06/05
!!!MPN: Mr. Ben Henneberry
!!!PPG: 92
!!!EFL: 46/152
!!!ARE: Canada; Nova Scotia
!!!verses: 8
!!!VTS: 3522114936
